icons/src/fluent/svg/chat_help_24_filled.svg

<svg width="24" height="24" viewBox="0 0 24 24" fill="none" xmlns="http://www.w3.org/2000/svg">
<path d="M12 2C17.5228 2 22 6.47715 22 12C22 17.5228 17.5228 22 12 22C10.3596 22 8.77516 21.6039 7.35578 20.8583L3.06538 21.9753C2.6111 22.0937 2.1469 21.8213 2.02858 21.367C1.99199 21.2266 1.99198 21.0791 2.02855 20.9386L3.1449 16.6502C2.3972 15.2294 2 13.6428 2 12C2 6.47715 6.47715 2 12 2ZM12 15.5C11.4477 15.5 11 15.9477 11 16.5C11 17.0523 11.4477 17.5 12 17.5C12.5523 17.5 13 17.0523 13 16.5C13 15.9477 12.5523 15.5 12 15.5ZM12 6.75C10.4812 6.75 9.25 7.98122 9.25 9.5C9.25 9.91421 9.58579 10.25 10 10.25C10.3797 10.25 10.6935 9.96785 10.7432 9.60177L10.7565 9.37219C10.8205 8.74187 11.3528 8.25 12 8.25C12.6904 8.25 13.25 8.80964 13.25 9.5C13.25 10.0388 13.115 10.3053 12.6051 10.8322L12.3011 11.1414C11.5475 11.926 11.25 12.4892 11.25 13.5C11.25 13.9142 11.5858 14.25 12 14.25C12.4142 14.25 12.75 13.9142 12.75 13.5C12.75 12.9612 12.885 12.6947 13.3949 12.1678L13.6989 11.8586C14.4525 11.074 14.75 10.5108 14.75 9.5C14.75 7.98122 13.5188 6.75 12 6.75Z" fill="#212121"/>
</svg>

<svg width="24" height="24" fill="none" viewBox="0 0 24 24" xmlns="http://www.w3.org/2000/svg">
    <path d="M12 2c5.523 0 10 4.477 10 10s-4.477 10-10 10a9.96 9.96 0 0 1-4.644-1.142l-4.29 1.117a.85.85 0 0 1-1.037-1.036l1.116-4.289A9.959 9.959 0 0 1 2 12C2 6.477 6.477 2 12 2Zm0 13.5a1 1 0 1 0 0 2 1 1 0 0 0 0-2Zm0-8.75A2.75 2.75 0 0 0 9.25 9.5a.75.75 0 0 0 1.493.102l.014-.23a1.25 1.25 0 0 1 2.493.128c0 .539-.135.805-.645 1.332l-.304.31c-.754.784-1.051 1.347-1.051 2.358a.75.75 0 0 0 1.5 0c0-.539.135-.805.645-1.332l.304-.31c.754-.784 1.051-1.347 1.051-2.358A2.75 2.75 0 0 0 12 6.75Z" fill="#212121"/>
</svg>
